misura/client/art/icon.svg

<?xml version="1.0" encoding="utf-8"?>
<!-- Generator: Adobe Illustrator 16.0.4, SVG Export Plug-In . SVG Version: 6.00 Build 0)  -->
<!DOCTYPE svg PUBLIC "-//W3C//DTD SVG 1.1//EN" "http://www.w3.org/Graphics/SVG/1.1/DTD/svg11.dtd">
<svg version="1.1" id="Livello_1" xmlns="http://www.w3.org/2000/svg" xmlns:xlink="http://www.w3.org/1999/xlink" x="0px" y="0px"
	 width="66.464px" height="57.893px" viewBox="0 0 66.464 57.893" enable-background="new 0 0 66.464 57.893" xml:space="preserve">
<g>
	<g>
		<g>
			<path fill="#004987" d="M22.842,34.875l0.004-0.01c-0.989-0.062-1.953-0.154-2.892-0.273c-9.175-1.493-15.505-5.793-15.29-11.169
				c0.243-5.927,8.58-11.255,19.394-13.254c1.725-1.034,3.079-1.949,4.641-2.687c-2.842,0.152-5.577,0.544-8.142,1.125
				C9.16,10.762,0.255,16.434,0.005,22.635c-0.244,6.047,7.921,10.723,18.722,11.945c1.717,0.266,3.524,0.435,5.402,0.492l0-0.011
				c-0.875-0.057-1.731-0.138-2.569-0.24C21.985,34.844,22.414,34.861,22.842,34.875"/>
		</g>
		<path fill="#004987" d="M56.118,17.654c-1.919-5.315-8.072-9.011-16.004-9.426c-1.164,0.641-1.77,0.878-3.992,2.083
			c0.423-0.046,1.248-0.101,1.672-0.127C46.243,9.654,53.353,12.782,56.118,17.654"/>
		<g>
			<path fill="#009BDE" d="M65.411,10.792c-3.043-16.026-21.207-9.46-21.207-9.46l-3.291,1.05c-2.23,0.86-4.287,1.846-6.146,2.866
				c-8.019,4.626-15.071,11.421-16.709,17.11c-0.263,0.911-0.358,2.23-0.183,2.962c0.005,0.043,0.02,0.11,0.038,0.193
				c-0.023,0.48-0.003,0.934,0.072,1.263c0.024,0.15,0.122,0.578,0.288,1.167c-0.759-4.416,4-9.217,4-9.217
				C32.674,7.772,43.952,5.104,43.952,5.104s16.82-4.956,19.748,9.731c0,0,0.473,2.844-0.518,6.619
				c0.316-0.625,0.574-1.232,0.789-1.819c-0.026,0.108-0.051,0.216-0.08,0.327C66.519,14.793,65.411,10.792,65.411,10.792"/>
		</g>
	</g>
	<circle fill="none" stroke="#002D62" stroke-width="3" stroke-miterlimit="10" cx="46.714" cy="38.143" r="18.25"/>
	<polygon fill="#002D62" points="39.276,28.127 39.276,48.282 59.433,38.205 	"/>
</g>
</svg>

<?xml version="1.0" encoding="UTF-8" standalone="no"?>
<!-- Generator: Adobe Illustrator 16.0.4, SVG Export Plug-In . SVG Version: 6.00 Build 0)  -->

<svg
   xmlns:dc="http://purl.org/dc/elements/1.1/"
   xmlns:cc="http://creativecommons.org/ns#"
   xmlns:rdf="http://www.w3.org/1999/02/22-rdf-syntax-ns#"
   xmlns:svg="http://www.w3.org/2000/svg"
   xmlns="http://www.w3.org/2000/svg"
   xmlns:sodipodi="http://sodipodi.sourceforge.net/DTD/sodipodi-0.dtd"
   xmlns:inkscape="http://www.inkscape.org/namespaces/inkscape"
   version="1.1"
   id="Livello_1"
   x="0px"
   y="0px"
   width="64"
   height="64"
   viewBox="0 0 64.000003 63.999998"
   enable-background="new 0 0 66.464 57.893"
   xml:space="preserve"
   inkscape:version="0.91 r13725"
   sodipodi:docname="icon.svg"
   inkscape:export-filename="/home/daniele/misura4/misura.client/misura/client/art/icon.svg.png"
   inkscape:export-xdpi="90"
   inkscape:export-ydpi="90"><metadata
     id="metadata25"><rdf:RDF><cc:Work
         rdf:about=""><dc:format>image/svg+xml</dc:format><dc:type
           rdf:resource="http://purl.org/dc/dcmitype/StillImage" /><dc:title></dc:title></cc:Work></rdf:RDF></metadata><defs
     id="defs23" /><sodipodi:namedview
     pagecolor="#ffffff"
     bordercolor="#666666"
     borderopacity="1"
     objecttolerance="10"
     gridtolerance="10"
     guidetolerance="10"
     inkscape:pageopacity="0"
     inkscape:pageshadow="2"
     inkscape:window-width="1879"
     inkscape:window-height="1056"
     id="namedview21"
     showgrid="false"
     inkscape:zoom="8.1529716"
     inkscape:cx="49.725837"
     inkscape:cy="21.992424"
     inkscape:window-x="41"
     inkscape:window-y="24"
     inkscape:window-maximized="1"
     inkscape:current-layer="Livello_1" /><g
     id="g3"
     transform="matrix(0.96,0,0,0.96,0.10272686,4.4438047)"><g
       id="g5"><g
         id="g7"><path
           d="m 22.842,34.875 0.004,-0.01 C 21.857,34.803 20.893,34.711 19.954,34.592 10.779,33.099 4.449,28.799 4.664,23.423 4.907,17.496 13.244,12.168 24.058,10.169 25.783,9.135 27.137,8.22 28.699,7.482 25.857,7.634 23.122,8.026 20.557,8.607 9.16,10.762 0.255,16.434 0.005,22.635 c -0.244,6.047 7.921,10.723 18.722,11.945 1.717,0.266 3.524,0.435 5.402,0.492 l 0,-0.011 c -0.875,-0.057 -1.731,-0.138 -2.569,-0.24 0.425,0.023 0.854,0.04 1.282,0.054"
           id="path9"
           inkscape:connector-curvature="0"
           style="fill:#004987" /></g><path
         d="M 56.118,17.654 C 54.199,12.339 48.046,8.643 40.114,8.228 c -1.164,0.641 -1.77,0.878 -3.992,2.083 0.423,-0.046 1.248,-0.101 1.672,-0.127 8.449,-0.53 15.559,2.598 18.324,7.47"
         id="path11"
         inkscape:connector-curvature="0"
         style="fill:#004987" /><g
         id="g13"><path
           d="M 65.411,10.792 C 62.368,-5.234 44.204,1.332 44.204,1.332 l -3.291,1.05 c -2.23,0.86 -4.287,1.846 -6.146,2.866 -8.019,4.626 -15.071,11.421 -16.709,17.11 -0.263,0.911 -0.358,2.23 -0.183,2.962 0.005,0.043 0.02,0.11 0.038,0.193 -0.023,0.48 -0.003,0.934 0.072,1.263 0.024,0.15 0.122,0.578 0.288,1.167 -0.759,-4.416 4,-9.217 4,-9.217 C 32.674,7.772 43.952,5.104 43.952,5.104 c 0,0 16.82,-4.956 19.748,9.731 0,0 0.473,2.844 -0.518,6.619 0.316,-0.625 0.574,-1.232 0.789,-1.819 -0.026,0.108 -0.051,0.216 -0.08,0.327 2.628,-5.169 1.52,-9.17 1.52,-9.17"
           id="path15"
           inkscape:connector-curvature="0"
           style="fill:#009bde" /></g></g><circle
       stroke-miterlimit="10"
       cx="46.714001"
       cy="38.143002"
       r="18.25"
       id="circle17"
       style="fill:none;stroke:#002d62;stroke-width:3;stroke-miterlimit:10" /><polygon
       points="39.276,28.127 39.276,48.282 59.433,38.205 "
       id="polygon19"
       style="fill:#002d62" /></g></svg>
